src/parts/tops/LongHairNotTooLong.svg

<svg>
  <g
    id="Top"
    strokeWidth="1"
    fillRule="evenodd"
  >
    <defs>
      <rect
        id="LongHairNotTooLong-path1"
        x="0"
        y="0"
        width="264"
        height="280"
      />
      <path
        id="LongHairNotTooLong-path2"
        d="M59,102.340285 C59,118.921045 59,145.474283 59,182 C59,186.418278 62.581722,190 67,190 L109,190 L109,180.610951 C91.4692178,172.282984 78.9518066,155.114792 77.2085808,134.867187 C71.4308707,134.002364 67,129.018625 67,123 L67,110 C67,106.509412 68.4903619,103.366917 70.8694649,101.174135 C82.4088376,98.5552525 94.9706808,93.6376395 107.341516,86.4953343 C119.473269,79.4910638 129.843979,71.2579416 137.820938,62.752196 C134.394107,70.6604321 130.244513,77.5880409 125.372156,83.5350224 C138.047336,78.0120855 146.677812,69.1324394 151.263585,56.8960843 C151.64142,57.8180234 152.034942,58.738913 152.444252,59.6582378 C162.699828,82.6926393 180.317578,99.018563 198.205873,104.403108 C198.718861,106.513486 199,108.48395 199,110 L199,123 C199,129.018625 194.569129,134.002364 188.791419,134.867187 C187.048193,155.114792 174.530782,172.282984 157,180.610951 L157,190 L175,190 C192.673112,190 207,175.673112 207,158 C207,133.944314 207,115.902549 207,103.874706 C207,103.807916 206.990567,103.721208 206.971823,103.615272 C206.82774,91.3536714 206.623862,84.2237818 206.360189,82.2256031 C201.576875,45.9764505 170.555563,18 133,18 C96.9151011,18 66.8627142,43.8282542 60,78 C54.4771525,78 50,83.5964406 50,90.5 C50,95.0507583 51.6949619,99.1431718 54.8534901,101.273154 C55.7582038,101.883256 57.323834,102.197638 58.9999994,102.340287 Z"
      />
    </defs>
    <mask
      id="LongHairNotTooLong-mask1"
      fill="white"
    >
      <use href="#LongHairNotTooLong-path1" />
    </mask>
    <g id="Mask" />
    <g
      id="Top/Long-Hair/Long-but-not-too-long"
      mask="url('#LongHairNotTooLong-mask1')"
    >
      <g transform="translate(-1.000000, 0.000000)">
        <g
          id="Behind"
          strokeWidth="1"
          fillRule="evenodd"
        >
          <mask
            id="LongHairNotTooLong-mask2"
            fill="white"
          >
            <use href="#LongHairNotTooLong-path2" />
          </mask>
          <use
            class="CustomColor"
            fill="var(--avataaar-hair-color)"
            href="#LongHairNotTooLong-path2"
          />
        </g>
        <g
          id="Top"
          strokeWidth="1"
          fillRule="evenodd"
          transform="translate(50.000000, 18.000000)"
          opacity="0.159999996"
        >
          <path
            id="Combined-Shape"
            d="M11.8989604,84.7749122 C25.7109099,83.0145308 41.6792969,77.5379209 57.3415164,68.4953343 C69.4732686,61.4910638 79.8439791,53.2579416 87.8209384,44.752196 C84.3941075,52.6604321 80.2445133,59.5880409 75.3721558,65.5350224 C88.0473359,60.0120855 96.6778122,51.1324394 101.263585,38.8960843 C101.64142,39.8180234 102.034942,40.738913 102.444252,41.6582378 C114.38223,68.4713761 136.296003,86.1944823 157,88.1510343 L157,88.1510343 L157,74 C157,33.1309285 123.869071,-7.50752664e-15 83,0 C46.9151011,6.62868839e-15 16.8627142,25.8282542 10.3212729,60.0063288 C10.214595,60.0021202 10.1074956,60 10,60 C4.4771525,60 0,65.5964406 0,72.5 C0,78.9816827 3.9466744,84.3111215 8.99999442,84.9382803 L8.99999434,85.0927525 C9.31629342,85.0638362 9.63387297,85.0328725 9.95270131,84.9998631 C9.96845895,84.9999543 9.98422521,85 10,85 C10.6492988,85 11.2841443,84.9226474 11.8989604,84.7749122 Z"
            fill="#FFFFFF"
          />
        </g>
      </g>
    </g>
  </g>
</svg>

<svg>
  <g id="Top">
    <defs>
      <path id="LongHairNotTooLong-path1" d="M0 0h264v280H0z"/>
      <path id="LongHairNotTooLong-path2" d="M59 102.34V182a8 8 0 0 0 8 8h42v-9.389c-17.53-8.328-30.048-25.496-31.791-45.744C71.43 134.002 67 129.02 67 123v-13c0-3.49 1.49-6.633 3.87-8.826 11.539-2.619 24.1-7.536 36.472-14.679 12.131-7.004 22.502-15.237 30.479-23.743-3.427 7.908-7.576 14.836-12.449 20.783 12.675-5.523 21.306-14.403 25.892-26.639.377.922.77 1.843 1.18 2.762 10.256 23.035 27.874 39.36 45.762 44.745.513 2.11.794 4.08.794 5.597v13c0 6.019-4.43 11.002-10.209 11.867-1.743 20.248-14.26 37.416-31.791 45.744V190h18c17.673 0 32-14.327 32-32v-54.125c0-.067-.01-.154-.028-.26-.144-12.261-.348-19.391-.612-21.39C201.577 45.977 170.556 18 133 18c-36.085 0-66.137 25.828-73 60-5.523 0-10 5.596-10 12.5 0 4.55 1.695 8.643 4.853 10.773.905.61 2.47.925 4.147 1.067Z"/>
    </defs>
    <mask id="LongHairNotTooLong-mask1" fill="#fff">
      <use href="#LongHairNotTooLong-path1"/>
    </mask>
    <g id="Top/Long-Hair/Long-but-not-too-long" mask="url('#LongHairNotTooLong-mask1')">
      <g transform="translate(-1)">
        <g id="Behind">
          <mask id="LongHairNotTooLong-mask2" fill="#fff">
            <use href="#LongHairNotTooLong-path2"/>
          </mask>
          <use fill="var(--avataaar-hair-color)" class="CustomColor" href="#LongHairNotTooLong-path2"/>
        </g>
        <g id="Top" opacity=".16" transform="translate(50 18)">
          <path id="Combined-Shape" fill="#FFF" d="M11.899 84.775c13.812-1.76 29.78-7.237 45.443-16.28 12.131-7.004 22.502-15.237 30.479-23.743-3.427 7.908-7.576 14.836-12.449 20.783 12.675-5.523 21.306-14.403 25.892-26.639.377.922.77 1.843 1.18 2.762C114.382 68.471 136.296 86.194 157 88.151V74c0-40.87-33.13-74-74-74-36.085 0-66.137 25.828-72.679 60.006A8.15 8.15 0 0 0 10 60C4.477 60 0 65.596 0 72.5c0 6.482 3.947 11.811 9 12.438v.155c.316-.03.634-.06.953-.093a8.172 8.172 0 0 0 1.946-.225Z"/>
        </g>
      </g>
    </g>
  </g>
</svg>
